X: 56
T:Jack Daniel's Reel
M:4/4
L:1/8
C:John Morris Rankin
S:Fare The 
R:Reel
K:A
ef|:a2ea faec|Acaf e2ce|fd d/2d/2d d2fd|ec c/2c/2c cBBc|
a2ea f/2g/2a ec|ABaf e2ce|f2ec e2fe|[1 c2Be cAAc|[2 c2Be cAAf||
|:ecBc AcBc|Acaf e2ce|fdcd Adcd|ABde fe e/2e/2e|
fece Bece|ABaf e2ce|f2ec e2fe|[1 c2Be cAAf|[2 c2Be cAA|]
